nginx/assets/figures/4.svg

<svg height="133" viewBox="0 0 100 100" width="133" xmlns="http://www.w3.org/2000/svg"><path d="m2 2h96v96h-96zm9 9h78v78h-78zm-9-9 9 9m-9 87 9-9m87 9-9-9m9-87-9 9m4-4" fill="none" stroke="#00a0e3"/><g fill="#009846" fill-rule="evenodd"><path d="m11 89v-78l-9-9v96zm0-78h78l9-9h-96zm0 0" stroke="#fefefe"/><path d="m89 11v78l9 9v-96zm0 0"/><path d="m89 89h-78l-9 9h96zm0 0" stroke="#fefefe"/></g></svg>

<svg xmlns="http://www.w3.org/2000/svg" width="133" height="133" viewBox="0 0 100 100"><path fill="none" stroke="#00a0e3" d="M2 2h96v96H2zm9 9h78v78H11zM2 2l9 9M2 98l9-9m87 9l-9-9m9-87l-9 9m4-4"/><g fill="#009846" fill-rule="evenodd"><path stroke="#fefefe" d="M11 89V11L2 2v96zm0-78h78l9-9H2zm0 0"/><path d="M89 11v78l9 9V2zm0 0"/><path stroke="#fefefe" d="M89 89H11l-9 9h96zm0 0"/></g></svg>
